X: 20941
M: 3/8
L: 1/16
K: F
c2 |\
c2a2g2 | f2e2d2 | c2d2A2 | c2B2B2 |\
d2B2e2 | f2a2c2 | d2B2e2 | f2a2c'2 |\
c'2b2a2 | b2b2a2 | g2c'2c'2 | c'4 :|
|: c2 |\
b4a2 | g4f2 | c>ee>gg>b | b2a2g2 |\
c'4b2 | a4g2 | c>ff>aa>c' | c'2b2a2 |\
d4f2 | f2e2d2 | c2A2f2 | f2e2d2 |\
c2AcAc | B4d2 | d2c2E2 | F4 :|
|:[K:Bb] z2 |\
e3dc2 | c3BA2 | BABcde | f2fgf2 |\
e3dc2 | c3BA2 | BdcBAG | F=EF^FGA |
f2fef2 | c'2b2a2 | {c'}b2bab2 | g4^g2 |\
{b}a2aga2 | f2fefa | g2gefd | c2c2c2 |\
f2fef2 | c'2b2a2 | b2bab2 | g4^g2 |\
{b}a2aga2 | {g}f2fef2 | g2gfg2 | e2ede2 |
f2fcag | f2fcag | f2f2f2 | f2z2 |\
c'2c'2c'2 | a2a2a2 | g2g2g2 | Hz6 |\


